X:928
T:She's sweetest when she's naked
C:Traditional Scottish
B:Scotland, Gillespie MS Perth 1768
N:For the dance "Revelations" by Jenna Simpson
R:Waltz (originally minuet)
S:Colin Hume's website,  colinhume.com  - chords can also be printed below the stave.
%%MIDI chordprog 45     % Pizzicato Strings
%%MIDI bassprog 45      % Pizzicato Strings
%%MIDI program 71       % Clarinet
Q:1/4=120
M:3/4
L:1/8
K:Bm
P:A
"Bm"B2f2f2 | "/"fe de fd | "G"B2d2d2 | "D/F#"AF EF A2 |\
"G"B2d2d2 | "D/F#"ed ef ab | "Em"f3 g fe | "A"de fe dc |
"Bm"B2f2f2 | "/"fe de fd | "G"B2d2d2 | "D/F#"AF EF A2 |\
"G"B2d2d2 | "D/F#"ed ef ab | "G"f3g fe | "A"de fe dc |
P:B
"Em"B2e2e2 | "/"e4de | "D"f2a2a2 | "/"a4b2 |\
"F#m"af ef ab | "/"af ef ae | "Bm"f2b2b2 | "G"b4a2 |
"D"f2 af ed | "A"e2f2a2 | "F#m"c3d cA | "/"F2A2A2 |\
"G"B2d2d2 | "D/F#"ed ef ab | "Em"f3g fe | "A"de fe dc |] "^Last time""Bm"B6 |]

